status/24/obs-tray.svg

<svg width="24" height="24" version="1.1" xmlns="http://www.w3.org/2000/svg">
 <defs>
  <style id="current-color-scheme" type="text/css">.ColorScheme-Text { color:#f2f2f2; } .ColorScheme-Highlight { color:#4285f4; } .ColorScheme-NeutralText { color:#ff9800; } .ColorScheme-PositiveText { color:#4caf50; } .ColorScheme-NegativeText { color:#f44336; }</style>
 </defs>
 <path class="ColorScheme-Text" d="m12 5a7 7 0 0 0-7 7 7 7 0 0 0 7 7 7 7 0 0 0 7-7 7 7 0 0 0-7-7zm0 1.0449a5.9546 5.9546 0 0 1 5.9141 5.3242c-0.16446-0.26223-0.35506-0.51367-0.58984-0.74414-0.65217-0.64605-1.4437-1.0304-2.3828-1.1562-0.14064-0.018828-0.25867-0.052856-0.44922 0.017578-0.19168 0.069868-0.28543 0.22275-0.3418 0.31836-0.08144 0.13781-0.54645 0.6113-0.80664 0.77734-0.73803 0.47161-1.9996 0.47183-2.7402 0-0.87573-0.55781-1.3743-1.6507-1.2168-2.6152 0.08926-0.5459 0.32058-1.0207 0.70508-1.4277 0.07985-0.084612 0.14068-0.15041 0.18945-0.20508 0.0118-0.013157 0.02104-0.0299 0.03125-0.041016a5.9546 5.9546 0 0 1 1.6875-0.24805zm-3.709 1.2949c-0.23478 0.5155-0.38992 1.1778-0.38867 1.7227 0.0013 0.50869 0.12543 1.1133 0.31836 1.5957 0.05093 0.12737 0.11268 0.29778 0.29688 0.41211s0.31501 0.10999 0.5 0.13086c0.16072 0.01803 0.49374 0.09004 0.64062 0.14062 1.4781 0.50847 2.1745 2.2026 1.4805 3.6191-0.46559 0.9516-1.5878 1.5799-2.5723 1.4688-0.12749-0.01474-0.22183-0.02067-0.30859-0.01953-0.04344 0-0.07369-0.0088-0.16602 0.01953-0.01089 0.0023-0.02718 0.01386-0.04102 0.01953a5.9546 5.9546 0 0 1-2.0059-4.4492 5.9546 5.9546 0 0 1 2.2461-4.6602zm0.45508 1.5137 2e-3 0.00391c0.10412 0.62631 0.35542 1.156 0.77734 1.6445-0.14488-0.03278-0.28677-0.07717-0.41607-0.0918-0.10434-0.01183-0.13695-0.01909-0.14258-0.01758 4.97e-4 0.0012 0.0012 0.0041 2e-3 0.0059-0.0031-0.0028-0.0051-0.0051-0.0039-0.0059-0.0024-0.0057-0.0012-0.0053-0.01172-0.0293-0.14529-0.3634-0.25484-0.93083-0.25586-1.3027-1.13e-4 -0.054896 0.0427-0.14102 0.04883-0.20703zm6.0547 1.3867c0.01021 6.8e-4 -0.02578 0.0076 0.0332 0.01563 0.32325 0.04333 0.51944 0.27082 0.78711 0.37891-0.33573-0.0507-0.63794-0.24339-0.98047-0.18555-0.06919 0.01112-0.08933 0.09222-0.15625 0.10742 0.10094-0.11274 0.24495-0.20128 0.31641-0.31641zm0.41406 0.96094c1.0299 0.02439 2.0459 0.71262 2.418 1.7031 0.02949 0.07872 0.04908 0.13768 0.06836 0.18555 0.0091 0.02382 0.02186 0.04225 0.0332 0.06641 0.0068 0.0127 0.01127 0.02587 0.02148 0.04492 0.0045 0.0095 0.01128 0.01984 0.02149 0.03516 0.0068 0.0094 0.02042 0.02352 0.03516 0.03906a5.9546 5.9546 0 0 1-5.8125 4.6797 5.9546 5.9546 0 0 1-2.5039-0.56055c0.36136 0 0.72157-0.02449 1.0195-0.11523l0.03125-0.01172 0.01953-0.0098 0.0078-0.0059c0.8045-0.262 1.6487-0.85142 2.1152-1.5059l0.25-0.34766-0.23242-0.69141c-0.53467-1.6184 0.40785-3.1968 2.0664-3.4766 0.14518-0.02461 0.29282-0.03281 0.44141-0.0293zm-1.9766 0.20117c-0.57448 0.46684-1.0319 1.0465-1.2656 1.7031-0.22117-0.63368-0.63796-1.218-1.1777-1.6836 0.8003 0.29977 1.6528 0.30077 2.4434-0.01953zm-1.2695 3.5977 0.08594 0.26758-0.01563 0.01953c-0.09051 0.12817-0.33575 0.20846-0.49023 0.3457 0.08371-0.12476 0.23604-0.18225 0.30273-0.31836 0.05115-0.10435 0.07999-0.2101 0.11719-0.31445z" fill="currentColor"/>
</svg>

<svg xmlns="http://www.w3.org/2000/svg" width="24" height="24" version="1.1">
 <defs>
  <style id="current-color-scheme" type="text/css">
   .ColorScheme-Text { color:#ffffff; } .ColorScheme-Highlight { color:#367bf0; }
  </style>
 </defs>
 <path style="fill:currentColor" class="ColorScheme-Text" d="M 12,4 A 8,8 0 0 0 4,12 8,8 0 0 0 12,20 8,8 0 0 0 20,12 8,8 0 0 0 12,4 Z M 12,6 A 6,6 0 0 1 17.959,11.363 C 17.793,11.099 17.603,10.846 17.367,10.613 16.71,9.9625 15.909,9.5761 14.963,9.4492 14.822,9.4303 14.704,9.3958 14.512,9.4668 14.319,9.5372 14.225,9.6908 14.168,9.7871 14.086,9.926 13.618,10.405 13.355,10.572 12.612,11.047 11.34,11.048 10.594,10.572 9.7111,10.01 9.2064,8.9074 9.3652,7.9355 9.4551,7.3855 9.6909,6.9083 10.078,6.498 10.159,6.4128 10.218,6.3461 10.268,6.291 10.279,6.2778 10.289,6.2611 10.299,6.25 A 6,6 0 0 1 12,6 Z M 8.2637,7.3047 C 8.0271,7.8241 7.8699,8.4921 7.8711,9.041 7.8723,9.5536 7.997,10.16 8.1914,10.646 8.2428,10.775 8.3046,10.947 8.4902,11.062 8.6758,11.178 8.8098,11.172 8.9961,11.193 9.158,11.212 9.4927,11.287 9.6406,11.338 11.13,11.85 11.83,13.556 11.131,14.984 10.662,15.942 9.5331,16.577 8.541,16.465 8.4126,16.45 8.3179,16.443 8.2305,16.443 8.1868,16.444 8.1556,16.437 8.0625,16.465 8.0515,16.468 8.0334,16.477 8.0195,16.482 A 6,6 0 0 1 6,12 6,6 0 0 1 8.2637,7.3047 Z M 8.7207,8.8301 8.7227,8.832 C 8.8277,9.4631 9.0808,9.9982 9.5059,10.49 9.36,10.457 9.2182,10.411 9.0879,10.396 8.9418,10.38 8.9347,10.376 8.9473,10.387 8.9425,10.375 8.9444,10.379 8.9316,10.35 8.7852,9.9829 8.6729,9.4118 8.6719,9.0371 8.6718,8.9817 8.7146,8.8967 8.7207,8.8301 Z M 14.822,10.229 C 14.832,10.229 14.797,10.236 14.855,10.244 15.182,10.288 15.381,10.516 15.65,10.625 15.312,10.574 15.006,10.379 14.66,10.438 14.591,10.448 14.571,10.53 14.504,10.545 14.606,10.431 14.75,10.345 14.822,10.229 Z M 15.238,11.193 C 16.277,11.218 17.301,11.912 17.676,12.91 17.706,12.99 17.727,13.05 17.746,13.098 17.756,13.122 17.766,13.142 17.777,13.166 17.784,13.179 17.788,13.19 17.799,13.209 17.804,13.219 17.812,13.231 17.822,13.246 17.829,13.256 17.843,13.269 17.857,13.285 A 6,6 0 0 1 12,18 6,6 0 0 1 9.4785,17.436 C 9.8427,17.436 10.204,17.41 10.504,17.318 L 10.535,17.309 10.557,17.297 10.562,17.293 C 11.372,17.028 12.223,16.434 12.693,15.773 L 12.945,15.424 12.713,14.727 C 12.174,13.096 13.124,11.507 14.795,11.225 14.942,11.2 15.089,11.19 15.238,11.193 Z M 13.248,11.396 C 12.669,11.867 12.208,12.452 11.973,13.113 11.75,12.475 11.329,11.887 10.785,11.418 11.592,11.72 12.451,11.719 13.248,11.396 Z M 11.969,15.021 12.057,15.291 12.041,15.312 C 11.95,15.442 11.701,15.522 11.545,15.66 11.629,15.534 11.782,15.475 11.85,15.338 11.901,15.233 11.931,15.127 11.969,15.021 Z"/>
</svg>
